html-css/module-10/img/line-graph.svg

<svg xmlns="http://www.w3.org/2000/svg" viewBox="0 0 32 32">
    <path fill="#95e1d3" d="M30.500,32.000 L1.500,32.000 C0.672,32.000 0.000,31.328 0.000,30.500 L0.000,1.499 C0.000,0.672 0.672,-0.000 1.500,-0.000 L30.500,-0.000 C31.328,-0.000 32.000,0.672 32.000,1.499 L32.000,30.500 C32.000,31.328 31.328,32.000 30.500,32.000 ZM29.000,3.000 L3.000,3.000 L3.000,29.000 L29.000,29.000 L29.000,3.000 ZM5.215,16.239 L5.215,16.237 L9.215,13.737 L9.215,13.739 C9.444,13.598 9.712,13.517 10.000,13.517 C10.311,13.517 10.600,13.612 10.840,13.774 L10.846,13.766 L17.477,18.186 L25.115,12.795 C25.363,12.613 25.669,12.505 26.000,12.505 C26.828,12.505 27.500,13.177 27.500,14.005 C27.500,14.505 27.255,14.948 26.878,15.221 L26.879,15.221 L18.379,21.221 L18.378,21.221 C18.132,21.400 17.828,21.505 17.500,21.505 C17.179,21.505 16.882,21.404 16.639,21.233 L9.982,16.795 L6.847,18.755 C6.606,18.920 6.314,19.017 6.000,19.017 C5.172,19.017 4.500,18.345 4.500,17.517 C4.500,16.976 4.786,16.503 5.215,16.239 Z"/>
</svg>

<svg xmlns="http://www.w3.org/2000/svg" viewBox="0 0 32 32"><path fill="#95e1d3" d="M30.5 32h-29A1.5 1.5 0 0 1 0 30.5v-29C0 .67.67 0 1.5 0h29c.83 0 1.5.67 1.5 1.5v29c0 .83-.67 1.5-1.5 1.5zM29 3H3v26h26V3zM5.21 16.24l4-2.5a1.49 1.49 0 0 1 1.63.03l6.64 4.42 7.63-5.4c.25-.18.56-.28.89-.28a1.5 1.5 0 0 1 .88 2.71l-8.5 6a1.49 1.49 0 0 1-1.74.01L9.98 16.8l-3.13 1.95a1.5 1.5 0 0 1-2.35-1.23c0-.54.29-1.02.71-1.28z"/></svg>
